X: 17650
T: Holey Ha'penny, The
R: jig
M: 6/8
K: Gmajor
dc|:B2G {A}GFG|.d2G {A}GFG|B2G {A}GFG|~d3 edc|
B2G {A}GFG|d/e/dc BAG|A2f {g}fef|~c3 edc:|
|:B2g {a}gfg|dgg Bgg|Ggg {a}gfg|~d3 edc|
B2g {a}gfg|dgg Bgg|A2f {g}fef|~c3 edc:|

